svg/factory_worker_positive.svg

<?xml version="1.0" encoding="UTF-8" standalone="no"?>
<!-- Created with Inkscape (http://www.inkscape.org/) -->
<svg id="svg8" xmlns:rdf="http://www.w3.org/1999/02/22-rdf-syntax-ns#" xmlns="http://www.w3.org/2000/svg" xmlns:osb="http://www.openswatchbook.org/uri/2009/osb" height="48" width="48" version="1.1" xmlns:cc="http://creativecommons.org/ns#" viewBox="0 0 12.7 12.7" xmlns:dc="http://purl.org/dc/elements/1.1/">
 <title id="title4753">UIO-icon</title>
 <metadata id="metadata5">
  <rdf:RDF>
   <cc:Work rdf:about="">
    <dc:format>image/svg+xml</dc:format>
    <dc:type rdf:resource="http://purl.org/dc/dcmitype/StillImage"/>
    <dc:title>UIO-icon</dc:title>
    <dc:creator>
     <cc:Agent>
      <dc:title>Joaquín Urbano</dc:title>
     </cc:Agent>
    </dc:creator>
    <dc:rights>
     <cc:Agent>
      <dc:title>GPL</dc:title>
     </cc:Agent>
    </dc:rights>
   </cc:Work>
  </rdf:RDF>
 </metadata>
 <g id="layer1" transform="translate(0,-284.3)" fill="#333">
  <path id="path1933" d="m23.5 4.9727c-2.6956 0-2.7562 0.071705-2.2305 2.6016 0.36088 1.737 0.36504 2.0102 0.029297 2.2871-0.579 0.4766-0.861 0.0841-1.299-1.7989-0.214-0.9226-0.426-1.7037-0.469-1.7402-0.205-0.1691-2.338 1.352-2.992 2.1347-0.8581 1.027-1.5762 2.6499-1.5762 3.5547 0 0.46638-0.12297 0.63281-0.4668 0.63281-0.96254 0-1.4706 1.0878-0.77539 1.6602 0.28514 0.34842 1.35 0.60364 2.8164 0.7832v4.787c0 2.0844 0.5155 4.1544 1.9922 5.084 2.09 1.3157 3.1271 2.1809 4.9668 2.2383 1.2599 0.00378 2.871-1.135 4.6094-2.2227 1.5631-0.97807 2.3613-3.0259 2.3613-5.0996-0.011169-1.627-0.030429-3.2539-0.046875-4.8809 1.3829-0.1767 2.4362-0.4063 2.8613-0.68945 0.69516-0.57238 0.1891-1.6602-0.77344-1.6602-0.34383 0-0.46875-0.16653-0.46875-0.63281 0-1.6841-1.6149-4.0564-3.4805-5.1133l-1.135-0.6441-0.135 0.584c-0.075 0.3216-0.267 1.1348-0.426 1.8066-0.315 1.3335-0.63 1.6515-1.181 1.1973-0.305-0.2513-0.297-0.5878 0.052-2.2676 0.526-2.53 0.464-2.6015-2.232-2.6015zm6.4062 10.082c0.016163 1.5108 0.031837 3.0036 0.041016 4.5156 0 1.8753-0.63337 4.0318-2.0469 4.916-1.572 0.98366-3.2259 2.1971-4.3652 2.1934-1.6637-0.047622-2.9459-1.0229-4.8359-2.2129-1.335-0.841-1.665-2.988-1.66-4.873l0.011719-4.4414c3.5917 0.36911 9.2033 0.30966 12.855-0.097656zm-9.4141 0.88477c-0.43898 0.00011339-0.79482 0.35601-0.79492 0.79492 0.00009828 0.43895 0.35596 0.79481 0.79492 0.79492 0.43898-0.00011339 0.79482-0.35604 0.79492-0.79492-0.00009828-0.43899-0.35596-0.79481-0.79492-0.79492zm5.9688 0c-0.43898 0.00011339-0.79483 0.35601-0.79492 0.79492 0.0000945 0.43895 0.35592 0.79481 0.79492 0.79492 0.43898-0.00011339 0.79482-0.35604 0.79492-0.79492-0.00009828-0.43899-0.35596-0.79481-0.79492-0.79492zm-3.035 3.669c-0.37814 0.00378-0.67004 0.070579-0.66602 0.14844 0.001999 0.080882 0.32239 0.14686 0.7168 0.14648 0.39441 0.00003776 0.71477-0.065602 0.7168-0.14648 0.003201-0.082016-0.31865-0.14844-0.7168-0.14844-0.017008-0.00011339-0.034-0.00011339-0.050781 0zm2.9551 2.2617c-0.00007561 0.00041575-0.011341 0.001424-0.011719 0.001953 0.00011717 0.00037792 0.011719-0.00041575 0.011719 0zm-0.011719 0.001953c-0.015874-0.053669-1.2268 0.071172-2.7285 0.2832-0.064441 0.007559-0.12896 0.019785-0.19336 0.027344-1.4369 0.2075-2.5416 0.40995-2.5215 0.46094 0.026079 0.052158 1.2485-0.077409 2.7422-0.28906 1.4821-0.21014 2.6733-0.42369 2.7012-0.48242zm3.9434 5.5605c-1.5652 1.4702-4.7177 2.8115-6.8027 2.8438-2.5629-0.002872-5.0208-1.0188-6.8379-2.8262l-0.10938 0.029297c-0.87529 0.31559-1.7272 0.6743-2.582 1.0449l-2.6523 1.1484c-0.97219 0.4165-1.9726 0.83023-3.0684 1.2109-2.5451 0.74956-2.5449 2.867-2.5449 4.0195v6.6621h35.572v-6.6621c0-1.1525 0.00016284-3.2682-2.5449-4.0195-1.2109-0.42077-2.3081-0.88043-3.373-1.3418l-2.652-1.15c-0.795-0.341-1.588-0.669-2.405-0.959zm0.10742 0.58594s0.90056 0.35421 1.4629 0.58203c0.24854 0.10069 0.31641 0.12891 0.31641 0.12891l0.001953 5.1309h-17.714l-0.009-4.987c-0.00000192-0.00096085 0.026518-0.010476 0.027344-0.011719h0.001953c0.055785-0.080286 1.7363-0.71484 1.7363-0.71484 0.29924-0.1146 0.28207-0.12207 0.29688-0.10938 0.65299 0.55982 3.3133 2.9164 7.0469 2.7539 2.9093-0.12663 4.8252-1.3 6.834-2.7734zm5.459 2.3047 2.6328 1.0254c1.2836 0.41857 2.3331 1.0986 2.2559 3.043l0.003906 6.6602h-4.8906zm-25.064 0.126-0.002 6.729v3.873h-4.5854l0.0078-6.631v-0.32031c0.19978-1.0654 0.34344-2.1469 2.2051-2.7461z" transform="matrix(.26458 0 0 .26458 0 284.3)"/>
  <path id="path12200" d="m23.5 4.9727c-2.6956 0-2.7562 0.071705-2.2305 2.6016 0.36088 1.737 0.36504 2.0102 0.029297 2.2871-0.579 0.4766-0.861 0.0841-1.299-1.7989-0.214-0.9226-0.426-1.7037-0.469-1.7402-0.205-0.1691-2.338 1.352-2.992 2.1347-0.8581 1.027-1.5762 2.6499-1.5762 3.5547 0 0.46638-0.12297 0.63281-0.4668 0.63281-0.96254 0-1.4706 1.0878-0.77539 1.6602 0.28514 0.34842 1.35 0.60364 2.8164 0.7832v4.787c0 2.0844 0.5155 4.1544 1.9922 5.084 2.09 1.3157 3.1271 2.1809 4.9668 2.2383 1.2599 0.00378 2.871-1.135 4.6094-2.2227 1.5631-0.97807 2.3613-3.0259 2.3613-5.0996-0.011169-1.627-0.030429-3.2539-0.046875-4.8809 1.3829-0.1767 2.4362-0.4063 2.8613-0.68945 0.69516-0.57238 0.1891-1.6602-0.77344-1.6602-0.34383 0-0.46875-0.16653-0.46875-0.63281 0-1.6841-1.6149-4.0564-3.4805-5.1133l-1.135-0.6441-0.135 0.584c-0.075 0.3216-0.267 1.1348-0.426 1.8066-0.315 1.3335-0.63 1.6515-1.181 1.1973-0.305-0.2513-0.297-0.5878 0.052-2.2676 0.526-2.53 0.464-2.6015-2.232-2.6015zm6.4062 10.082c0.016163 1.5108 0.031837 3.0036 0.041016 4.5156 0 1.8753-0.63337 4.0318-2.0469 4.916-1.572 0.98366-3.2259 2.1971-4.3652 2.1934-1.6637-0.047622-2.9459-1.0229-4.8359-2.2129-1.335-0.841-1.665-2.988-1.66-4.873l0.011719-4.4414c3.5917 0.36911 9.2033 0.30966 12.855-0.097656zm-9.4141 0.88477c-0.43898 0.00011339-0.79482 0.35601-0.79492 0.79492 0.00009828 0.43895 0.35596 0.79481 0.79492 0.79492 0.43898-0.00011339 0.79482-0.35604 0.79492-0.79492-0.00009828-0.43899-0.35596-0.79481-0.79492-0.79492zm5.9688 0c-0.43898 0.00011339-0.79483 0.35601-0.79492 0.79492 0.0000945 0.43895 0.35592 0.79481 0.79492 0.79492 0.43898-0.00011339 0.79482-0.35604 0.79492-0.79492-0.00009828-0.43899-0.35596-0.79481-0.79492-0.79492zm-3.035 3.669c-0.37814 0.00378-0.67004 0.070579-0.66602 0.14844 0.001999 0.080882 0.32239 0.14686 0.7168 0.14648 0.39441 0.00003776 0.71477-0.065602 0.7168-0.14648 0.003201-0.082016-0.31865-0.14844-0.7168-0.14844-0.017008-0.00011339-0.034-0.00011339-0.050781 0zm2.9551 2.2617c-0.00007561 0.00041575-0.011341 0.001424-0.011719 0.001953 0.00011717 0.00037792 0.011719-0.00041575 0.011719 0zm-0.011719 0.001953c-0.015874-0.053669-1.2268 0.071172-2.7285 0.2832-0.064441 0.007559-0.12896 0.019785-0.19336 0.027344-1.4369 0.2075-2.5416 0.40995-2.5215 0.46094 0.026079 0.052158 1.2485-0.077409 2.7422-0.28906 1.4821-0.21014 2.6733-0.42369 2.7012-0.48242zm3.9434 5.5605c-1.5652 1.4702-4.7177 2.8115-6.8027 2.8438-2.5629-0.002872-5.0208-1.0188-6.8379-2.8262l-0.10938 0.029297c-0.87529 0.31559-1.7272 0.6743-2.582 1.0449l-2.6523 1.1484c-0.97219 0.4165-1.9726 0.83023-3.0684 1.2109-2.5451 0.74956-2.5449 2.867-2.5449 4.0195v6.6621h35.572v-6.6621c0-1.1525 0.00016284-3.2682-2.5449-4.0195-1.2109-0.42077-2.3081-0.88043-3.373-1.3418l-2.652-1.15c-0.795-0.341-1.588-0.669-2.405-0.959zm0.10742 0.58594s0.90056 0.35421 1.4629 0.58203c0.24854 0.10069 0.31641 0.12891 0.31641 0.12891l0.001953 5.1309h-17.714l-0.009-4.987c-0.00000192-0.00096085 0.026518-0.010476 0.027344-0.011719h0.001953c0.055785-0.080286 1.7363-0.71484 1.7363-0.71484 0.29924-0.1146 0.28207-0.12207 0.29688-0.10938 0.65299 0.55982 3.3133 2.9164 7.0469 2.7539 2.9093-0.12663 4.8252-1.3 6.834-2.7734zm5.459 2.3047 2.6328 1.0254c1.2836 0.41857 2.3331 1.0986 2.2559 3.043l0.003906 6.6602h-4.8906zm-25.064 0.126-0.002 6.729v3.873h-4.5854l0.0078-6.631v-0.32031c0.19978-1.0654 0.34344-2.1469 2.2051-2.7461z" transform="matrix(.26458 0 0 .26458 0 284.3)"/>
 </g>
</svg>

<svg width="48" height="48" viewBox="0 0 48 48" fill="none" xmlns="http://www.w3.org/2000/svg">
<path d="M23.4998 4.97266C20.8042 4.97266 20.7436 5.04436 21.2693 7.57422C21.6302 9.3112 21.6343 9.5844 21.2986 9.86129C20.7196 10.3379 20.4376 9.94539 19.9996 8.06242C19.7856 7.13983 19.5736 6.35874 19.5306 6.32224C19.3256 6.15314 17.1926 7.67422 16.5387 8.45691C15.6806 9.4839 14.9625 11.1068 14.9625 12.0116C14.9625 12.4779 14.8395 12.6444 14.4957 12.6444C13.5331 12.6444 13.0251 13.7322 13.7203 14.3046C14.0054 14.653 15.0703 14.9082 16.5367 15.0877V19.8747C16.5367 21.9591 17.0522 24.029 18.5288 24.9586C20.6188 26.2743 21.6559 27.1395 23.4956 27.1969C24.7555 27.2007 26.3665 26.0619 28.1049 24.9742C29.668 23.9962 30.4662 21.9484 30.4662 19.8747C30.455 18.2477 30.4358 16.6208 30.4193 14.9938C31.8022 14.8171 32.8555 14.5875 33.2806 14.3044C33.9757 13.732 33.4697 12.6442 32.5071 12.6442C32.1633 12.6442 32.0384 12.4777 32.0384 12.0114C32.0384 10.3273 30.4235 7.95507 28.5579 6.89818L27.423 6.25409L27.288 6.83808C27.213 7.15968 27.021 7.97287 26.862 8.64466C26.547 9.97814 26.232 10.2961 25.681 9.84194C25.376 9.59065 25.384 9.25415 25.733 7.57437C26.259 5.04441 26.197 4.97291 23.501 4.97291L23.4998 4.97266ZM29.9059 15.0545C29.922 16.5653 29.9377 18.0581 29.9469 19.5701C29.9469 21.4453 29.3135 23.6018 27.9 24.486C26.328 25.4697 24.6742 26.6831 23.5349 26.6794C21.8712 26.6318 20.589 25.6565 18.699 24.4665C17.3641 23.6255 17.0341 21.4785 17.0391 19.5936L17.0508 15.1522C20.6424 15.5213 26.2542 15.4618 29.9059 15.0545ZM20.4919 15.9393C20.0529 15.9394 19.6971 16.2953 19.697 16.7342C19.6971 17.1731 20.0529 17.529 20.4919 17.5291C20.9309 17.529 21.2867 17.1731 21.2868 16.7342C21.2867 16.2952 20.9309 15.9394 20.4919 15.9393ZM26.4606 15.9393C26.0217 15.9394 25.6658 16.2953 25.6657 16.7342C25.6658 17.1731 26.0216 17.529 26.4606 17.5291C26.8996 17.529 27.2554 17.1731 27.2555 16.7342C27.2554 16.2952 26.8996 15.9394 26.4606 15.9393ZM23.4257 19.6082C23.0475 19.612 22.7556 19.6788 22.7597 19.7567C22.7617 19.8376 23.082 19.9035 23.4764 19.9032C23.8709 19.9032 24.1912 19.8376 24.1932 19.7567C24.1964 19.6747 23.8746 19.6082 23.4764 19.6082C23.4594 19.6081 23.4424 19.6081 23.4257 19.6082ZM26.3807 21.8699C26.3807 21.8703 26.3694 21.8713 26.369 21.8719C26.3691 21.8722 26.3807 21.8715 26.3807 21.8719V21.8699ZM26.369 21.8719C26.3531 21.8182 25.1422 21.943 23.6405 22.1551C23.5761 22.1626 23.5116 22.1748 23.4472 22.1824C22.0103 22.3899 20.9056 22.5924 20.9257 22.6433C20.9518 22.6955 22.1742 22.5659 23.6679 22.3543C25.15 22.1441 26.3411 21.9306 26.369 21.8719ZM30.3124 27.4323C28.7472 28.9025 25.5947 30.2438 23.5097 30.2761C20.9469 30.2732 18.489 29.2573 16.6719 27.4499L16.5626 27.4792C15.6873 27.7948 14.8354 28.1535 13.9806 28.5241L11.3283 29.6725C10.3561 30.089 9.35574 30.5027 8.25996 30.8834C5.71489 31.6329 5.71509 33.7503 5.71509 34.9028V41.5648H41.2866V34.9028C41.2866 33.7503 41.2868 31.6346 38.7418 30.8834C37.5309 30.4626 36.4337 30.0029 35.3688 29.5416L32.7169 28.3916C31.9219 28.0506 31.1294 27.7223 30.3124 27.4323ZM30.4198 28.0182C30.4198 28.0182 31.3203 28.3724 31.8827 28.6003C32.1312 28.7009 32.1991 28.7292 32.1991 28.7292L32.201 33.86H14.4872L14.4782 28.8731C14.4782 28.8721 14.5048 28.8626 14.5056 28.8613H14.5075C14.5633 28.7811 16.2438 28.1465 16.2438 28.1465C16.5431 28.0319 16.5259 28.0244 16.5407 28.0371C17.1937 28.5969 19.854 30.9535 23.5875 30.791C26.4968 30.6644 28.4126 29.491 30.4214 28.0176L30.4198 28.0182ZM35.8787 30.3229L38.5115 31.3483C39.7951 31.7669 40.8446 32.4469 40.7673 34.3913L40.7713 41.0514H35.8807L35.8787 30.3229ZM10.815 30.4489L10.813 41.0508H6.22768L6.23548 34.4198V34.0995C6.43526 33.0342 6.57892 31.9527 8.44055 31.3535L10.815 30.4489Z" fill="#333333"/>
<path d="M23.4998 4.97266C20.8042 4.97266 20.7436 5.04436 21.2693 7.57422C21.6302 9.3112 21.6343 9.5844 21.2986 9.86129C20.7196 10.3379 20.4376 9.94539 19.9996 8.06242C19.7856 7.13983 19.5736 6.35874 19.5306 6.32224C19.3256 6.15314 17.1926 7.67422 16.5387 8.45691C15.6806 9.4839 14.9625 11.1068 14.9625 12.0116C14.9625 12.4779 14.8395 12.6444 14.4957 12.6444C13.5331 12.6444 13.0251 13.7322 13.7203 14.3046C14.0054 14.653 15.0703 14.9082 16.5367 15.0877V19.8747C16.5367 21.9591 17.0522 24.029 18.5288 24.9586C20.6188 26.2743 21.6559 27.1395 23.4956 27.1969C24.7555 27.2007 26.3665 26.0619 28.1049 24.9742C29.668 23.9962 30.4662 21.9484 30.4662 19.8747C30.455 18.2477 30.4358 16.6208 30.4193 14.9938C31.8022 14.8171 32.8555 14.5875 33.2806 14.3044C33.9757 13.732 33.4697 12.6442 32.5071 12.6442C32.1633 12.6442 32.0384 12.4777 32.0384 12.0114C32.0384 10.3273 30.4235 7.95507 28.5579 6.89818L27.423 6.25409L27.288 6.83808C27.213 7.15968 27.021 7.97287 26.862 8.64466C26.547 9.97814 26.232 10.2961 25.681 9.84194C25.376 9.59065 25.384 9.25415 25.733 7.57437C26.259 5.04441 26.197 4.97291 23.501 4.97291L23.4998 4.97266ZM29.9059 15.0545C29.922 16.5653 29.9377 18.0581 29.9469 19.5701C29.9469 21.4453 29.3135 23.6018 27.9 24.486C26.328 25.4697 24.6742 26.6831 23.5349 26.6794C21.8712 26.6318 20.589 25.6565 18.699 24.4665C17.3641 23.6255 17.0341 21.4785 17.0391 19.5936L17.0508 15.1522C20.6424 15.5213 26.2542 15.4618 29.9059 15.0545ZM20.4919 15.9393C20.0529 15.9394 19.6971 16.2953 19.697 16.7342C19.6971 17.1731 20.0529 17.529 20.4919 17.5291C20.9309 17.529 21.2867 17.1731 21.2868 16.7342C21.2867 16.2952 20.9309 15.9394 20.4919 15.9393ZM26.4606 15.9393C26.0217 15.9394 25.6658 16.2953 25.6657 16.7342C25.6658 17.1731 26.0216 17.529 26.4606 17.5291C26.8996 17.529 27.2554 17.1731 27.2555 16.7342C27.2554 16.2952 26.8996 15.9394 26.4606 15.9393ZM23.4257 19.6082C23.0475 19.612 22.7556 19.6788 22.7597 19.7567C22.7617 19.8376 23.082 19.9035 23.4764 19.9032C23.8709 19.9032 24.1912 19.8376 24.1932 19.7567C24.1964 19.6747 23.8746 19.6082 23.4764 19.6082C23.4594 19.6081 23.4424 19.6081 23.4257 19.6082ZM26.3807 21.8699C26.3807 21.8703 26.3694 21.8713 26.369 21.8719C26.3691 21.8722 26.3807 21.8715 26.3807 21.8719V21.8699ZM26.369 21.8719C26.3531 21.8182 25.1422 21.943 23.6405 22.1551C23.5761 22.1626 23.5116 22.1748 23.4472 22.1824C22.0103 22.3899 20.9056 22.5924 20.9257 22.6433C20.9518 22.6955 22.1742 22.5659 23.6679 22.3543C25.15 22.1441 26.3411 21.9306 26.369 21.8719ZM30.3124 27.4323C28.7472 28.9025 25.5947 30.2438 23.5097 30.2761C20.9469 30.2732 18.489 29.2573 16.6719 27.4499L16.5626 27.4792C15.6873 27.7948 14.8354 28.1535 13.9806 28.5241L11.3283 29.6725C10.3561 30.089 9.35574 30.5027 8.25996 30.8834C5.71489 31.6329 5.71509 33.7503 5.71509 34.9028V41.5648H41.2866V34.9028C41.2866 33.7503 41.2868 31.6346 38.7418 30.8834C37.5309 30.4626 36.4337 30.0029 35.3688 29.5416L32.7169 28.3916C31.9219 28.0506 31.1294 27.7223 30.3124 27.4323ZM30.4198 28.0182C30.4198 28.0182 31.3203 28.3724 31.8827 28.6003C32.1312 28.7009 32.1991 28.7292 32.1991 28.7292L32.201 33.86H14.4872L14.4782 28.8731C14.4782 28.8721 14.5048 28.8626 14.5056 28.8613H14.5075C14.5633 28.7811 16.2438 28.1465 16.2438 28.1465C16.5431 28.0319 16.5259 28.0244 16.5407 28.0371C17.1937 28.5969 19.854 30.9535 23.5875 30.791C26.4968 30.6644 28.4126 29.491 30.4214 28.0176L30.4198 28.0182ZM35.8787 30.3229L38.5115 31.3483C39.7951 31.7669 40.8446 32.4469 40.7673 34.3913L40.7713 41.0514H35.8807L35.8787 30.3229ZM10.815 30.4489L10.813 41.0508H6.22768L6.23548 34.4198V34.0995C6.43526 33.0342 6.57892 31.9527 8.44055 31.3535L10.815 30.4489Z" fill="#333333"/>
</svg>
